exports/daily-caloric-supply-per-capita-in-european-countries-and-the-usa-1700-2013_v1_850x600.svg

<svg xmlns="http://www.w3.org/2000/svg" version="1.1" style="background-color:#fff;-webkit-font-smoothing:antialiased" width="850" height="600" font-family="'Helvetica Neue',Helvetica,Arial,sans-serif" font-size="18" text-rendering="optimizeLegibility"><g class="ChartTab"><g class="HeaderView"><g opacity=".8" transform="matrix(.31 0 0 .31 770 15)"><a xmlns:xlink="http://www.w3.org/1999/xlink" xlink:href="https://ourworldindata.org" target="_blank"><g><path fill="#1B2543" d="M0 0h211.2v130.1H0z"/><path fill="#E63912" d="M0 112.2h211.2v17.9H0z"/><g><path fill="none" d="M1.2 12.3h210.2v99.2H1.2z"/><path fill="#FFF" d="M37.8 32.2c0 12.7-7.7 19.4-17.1 19.4-9.7 0-16.6-7.5-16.6-18.7 0-11.7 7.3-19.3 17.1-19.3 10.1.1 16.6 7.7 16.6 18.6zm-28.6.6c0 7.9 4.3 14.9 11.8 14.9 7.5 0 11.8-6.9 11.8-15.3 0-7.3-3.8-14.9-11.8-14.9-7.9 0-11.8 7.3-11.8 15.3zM62.7 43.8c0 2.7.1 5.1.2 7.2h-4.3l-.3-4.3h-.1c-1.3 2.1-4 4.9-8.8 4.9-4.2 0-9.1-2.3-9.1-11.6V24.6h4.8v14.6c0 5 1.5 8.4 5.9 8.4 3.2 0 5.5-2.2 6.3-4.4.3-.7.4-1.6.4-2.5V24.6h4.8v19.2zM67.3 32.8c0-3.1-.1-5.8-.2-8.2h4.2l.2 5.2h.2c1.2-3.5 4.1-5.8 7.3-5.8.5 0 .9.1 1.4.2v4.5c-.5-.1-1-.2-1.6-.2-3.4 0-5.8 2.6-6.5 6.2-.1.7-.2 1.4-.2 2.2V51h-4.8V32.8zM95.4 51L86 14.2h5l4.4 18.6c1.1 4.6 2.1 9.2 2.7 12.7h.1c.6-3.7 1.8-8 3-12.8l4.9-18.5h5l4.5 18.7c1 4.4 2 8.7 2.6 12.6h.1c.8-4 1.8-8.1 3-12.7l4.9-18.5h4.9L120.6 51h-5L111 31.9c-1.1-4.7-1.9-8.3-2.4-12h-.1c-.7 3.7-1.5 7.3-2.8 12L100.4 51h-5zM154.9 37.6c0 9.8-6.8 14-13.2 14-7.2 0-12.7-5.2-12.7-13.6 0-8.8 5.8-14 13.1-14 7.7 0 12.8 5.5 12.8 13.6zm-21 .3c0 5.8 3.3 10.1 8 10.1 4.6 0 8-4.3 8-10.3 0-4.5-2.2-10.1-7.9-10.1s-8.1 5.2-8.1 10.3zM158.2 32.8c0-3.1-.1-5.8-.2-8.2h4.2l.2 5.2h.2c1.2-3.5 4.1-5.8 7.3-5.8.5 0 .9.1 1.4.2v4.5c-.5-.1-1-.2-1.6-.2-3.4 0-5.8 2.6-6.5 6.2-.1.7-.2 1.4-.2 2.2V51h-4.8V32.8zM173.5 12.3h4.8V51h-4.8V12.3zM206.5 12.3v31.9c0 2.3.1 5 .2 6.8h-4.3l-.2-4.6h-.2c-1.5 2.9-4.7 5.2-9 5.2-6.4 0-11.3-5.4-11.3-13.4-.1-8.8 5.4-14.2 11.9-14.2 4 0 6.8 1.9 8 4h.1V12.3h4.8zm-4.8 23.1c0-.6-.1-1.4-.2-2a7 7 0 00-6.9-5.6c-5 0-7.9 4.4-7.9 10.2 0 5.3 2.6 9.8 7.8 9.8 3.2 0 6.2-2.1 7.1-5.7.2-.7.2-1.3.2-2.1v-4.6zM42.8 64c.1 1.6-1.1 2.9-3.1 2.9-1.7 0-2.9-1.3-2.9-2.9 0-1.7 1.3-3 3-3 1.9 0 3 1.3 3 3zm-5.4 33.8V71.4h4.8v26.4h-4.8zM47.5 78.6c0-2.7-.1-5-.2-7.1h4.3l.3 4.4h.1c1.3-2.5 4.4-5 8.8-5 3.7 0 9.4 2.2 9.4 11.2v15.8h-4.8V82.6c0-4.3-1.6-7.8-6.1-7.8-3.2 0-5.6 2.2-6.5 4.9-.2.6-.3 1.4-.3 2.2v15.9h-4.8V78.6zM84 61.6c2.9-.4 6.3-.8 10.1-.8 6.8 0 11.7 1.6 14.9 4.6 3.3 3 5.2 7.3 5.2 13.2 0 6-1.9 10.9-5.3 14.3-3.4 3.4-9.1 5.3-16.3 5.3-3.4 0-6.2-.2-8.6-.4V61.6zm4.8 32.5c1.2.2 3 .3 4.8.3 10.2 0 15.7-5.7 15.7-15.6.1-8.7-4.9-14.2-14.9-14.2-2.5 0-4.3.2-5.6.5v29zM132.1 97.8l-.4-3.3h-.2a9.79 9.79 0 01-8.1 3.9c-5.4 0-8.1-3.8-8.1-7.6 0-6.4 5.7-9.9 15.9-9.8v-.5c0-2.2-.6-6.1-6-6.1-2.5 0-5 .8-6.9 2l-1.1-3.2c2.2-1.4 5.4-2.3 8.7-2.3 8.1 0 10.1 5.5 10.1 10.8v9.9c0 2.3.1 4.5.4 6.3h-4.3zm-.7-13.4c-5.3-.1-11.2.8-11.2 5.9 0 3.1 2.1 4.6 4.5 4.6 3.4 0 5.6-2.2 6.4-4.4.2-.5.3-1 .3-1.5v-4.6zM146.6 63.9v7.6h6.9v3.7h-6.9v14.2c0 3.3.9 5.1 3.6 5.1 1.3 0 2.2-.2 2.8-.3l.2 3.6c-.9.4-2.4.7-4.3.7-2.2 0-4-.7-5.2-2-1.4-1.4-1.9-3.8-1.9-6.9V75.1h-4.1v-3.7h4.1v-6.3l4.8-1.2zM171.4 97.8l-.4-3.3h-.2a9.79 9.79 0 01-8.1 3.9c-5.4 0-8.1-3.8-8.1-7.6 0-6.4 5.7-9.9 15.9-9.8v-.5c0-2.2-.6-6.1-6-6.1-2.5 0-5 .8-6.9 2l-1.1-3.2c2.2-1.4 5.4-2.3 8.7-2.3 8.1 0 10.1 5.5 10.1 10.8v9.9c0 2.3.1 4.5.4 6.3h-4.3zm-.7-13.4c-5.3-.1-11.2.8-11.2 5.9 0 3.1 2.1 4.6 4.5 4.6 3.4 0 5.6-2.2 6.4-4.4.2-.5.3-1 .3-1.5v-4.6z"/></g></g></a></g><a href="https://ourworldindata.org/grapher/daily-per-capita-supply-of-calories" target="_blank"><text font-size="27" x="15" y="36.6" fill="#555"><tspan x="15" y="36.6">Daily per capita supply of calories</tspan></text></a><text font-size="14.4" x="15" y="55.5" fill="#666"><tspan x="15" y="55.52">Average daily per capita supply of calories over the long-run, measured in kilocalories per person per day.</tspan></text></g><g class="LineChart"><defs><clipPath id="a"><path d="M84.2 0h830v956.2h-830z"/></clipPath></defs><g class="AxisBoxView"><g class="HorizontalAxis" fill="#666" text-anchor="middle" font-size="16.2"><text x="94.2" y="556.5">1934</text><text x="145.7" y="556.5">1940</text><text x="231.5" y="556.5">1950</text><text x="317.4" y="556.5">1960</text><text x="403.2" y="556.5">1970</text><text x="489" y="556.5">1980</text><text x="574.9" y="556.5">1990</text><text x="660.7" y="556.5">2000</text><text x="772.3" y="556.5">2013</text></g><g class="VerticalAxis" fill="#666" dominant-baseline="middle" text-anchor="end" font-size="16.2"><text x="89.2" y="535.3">0 kcal</text><text x="89.2" y="461.8">500 kcal</text><text x="89.2" y="388.3">1,000 kcal</text><text x="89.2" y="314.8">1,500 kcal</text><text x="89.2" y="241.3">2,000 kcal</text><text x="89.2" y="167.8">2,500 kcal</text><text x="89.2" y="94.3">3,000 kcal</text></g><g class="AxisGridLines"><path stroke="#ccc" d="M94.2 535.3h678.07"/><path stroke="#ddd" stroke-dasharray="3,2" d="M94.2 461.8h678.07M94.2 388.3h678.07M94.2 314.8h678.07M94.2 241.3h678.07M94.2 167.8h678.07M94.2 94.3h678.07"/></g><g class="AxisGridLines" stroke="#ddd" stroke-dasharray="3,2"><path d="M145.7 535.3V78.4M231.5 535.3V78.4M317.4 535.3V78.4M403.2 535.3V78.4M489 535.3V78.4M574.9 535.3V78.4M660.7 535.3V78.4M746.5 535.3V78.4"/></g></g><g clip-path="url(#a)"><g class="HeightedLegend clickable"><g class="legendMark"><path fill="#3360a9" d="M782.27 77.15h10v2.5h-10z"/><text font-size="14.4" x="797.3" y="82.7" fill="#333"><tspan x="797.27" y="82.72">China</tspan></text></g></g><g class="Lines"><g class="key-China_0"><path stroke="#3360a9" stroke-linecap="round" d="M94 208l103 29 9-13 43 38 8-3 9-2 8-16 9-7 9 1 8-1 9 48 8 40 9 2 9-16 8-10 9-10 8-19 9-10 8 7 9 8 9 4 8-16 9-1 8 3 9-10h9l8-2 9 5 8-6 9-21 8-3 9-9 9-3 8-24 9-9 8-5h9l9 1 8-3 9 4 8 1 9-14 8 10 9-3 9-13 8-9 9-13h8l9-5 9-6 8 1 9-6 8-1 9-3h8l9-3 9-3 8-1 9-5 8-8 9-3 9-7 8-5 9-3 8-2" fill="none" stroke-width="1.5"/><g fill="#3360a9"><circle cx="94" cy="208" r="2"/><circle cx="197" cy="237" r="2"/><circle cx="206" cy="224" r="2"/><circle cx="249" cy="262" r="2"/><circle cx="257" cy="259" r="2"/><circle cx="266" cy="257" r="2"/><circle cx="274" cy="241" r="2"/><circle cx="283" cy="234" r="2"/><circle cx="292" cy="235" r="2"/><circle cx="300" cy="234" r="2"/><circle cx="309" cy="282" r="2"/><circle cx="317" cy="322" r="2"/><circle cx="326" cy="324" r="2"/><circle cx="335" cy="308" r="2"/><circle cx="343" cy="298" r="2"/><circle cx="352" cy="288" r="2"/><circle cx="360" cy="269" r="2"/><circle cx="369" cy="259" r="2"/><circle cx="377" cy="266" r="2"/><circle cx="386" cy="274" r="2"/><circle cx="395" cy="278" r="2"/><circle cx="403" cy="262" r="2"/><circle cx="412" cy="261" r="2"/><circle cx="420" cy="264" r="2"/><circle cx="429" cy="254" r="2"/><circle cx="438" cy="254" r="2"/><circle cx="446" cy="252" r="2"/><circle cx="455" cy="257" r="2"/><circle cx="463" cy="251" r="2"/><circle cx="472" cy="230" r="2"/><circle cx="480" cy="227" r="2"/><circle cx="489" cy="218" r="2"/><circle cx="498" cy="215" r="2"/><circle cx="506" cy="191" r="2"/><circle cx="515" cy="182" r="2"/><circle cx="523" cy="177" r="2"/><circle cx="532" cy="177" r="2"/><circle cx="541" cy="178" r="2"/><circle cx="549" cy="175" r="2"/><circle cx="558" cy="179" r="2"/><circle cx="566" cy="180" r="2"/><circle cx="575" cy="166" r="2"/><circle cx="583" cy="176" r="2"/><circle cx="592" cy="173" r="2"/><circle cx="601" cy="160" r="2"/><circle cx="609" cy="151" r="2"/><circle cx="618" cy="138" r="2"/><circle cx="626" cy="138" r="2"/><circle cx="635" cy="133" r="2"/><circle cx="644" cy="127" r="2"/><circle cx="652" cy="128" r="2"/><circle cx="661" cy="122" r="2"/><circle cx="669" cy="121" r="2"/><circle cx="678" cy="118" r="2"/><circle cx="686" cy="118" r="2"/><circle cx="695" cy="115" r="2"/><circle cx="704" cy="112" r="2"/><circle cx="712" cy="111" r="2"/><circle cx="721" cy="106" r="2"/><circle cx="729" cy="98" r="2"/><circle cx="738" cy="95" r="2"/><circle cx="747" cy="88" r="2"/><circle cx="755" cy="83" r="2"/><circle cx="764" cy="80" r="2"/><circle cx="772" cy="78" r="2"/></g></g></g></g></g><g class="SourcesFooter" fill="#777"><g class="clickable" fill="#777"><text font-size="12.6" x="15" y="581.6"><tspan x="15" y="581.58">Source: Daily caloric supply per capita long-term - FAO (2017)</tspan></text></g><text font-size="12.6" x="552" y="581.6"><tspan x="552" y="581.58"><a target="_blank" href="https://ourworldindata.org/food-per-person/" fill="#777">OurWorldInData.org/food-per-person/</a> • <a href="http://creativecommons.org/licenses/by-sa/4.0/deed.en_US" target="_blank" fill="#777">CC BY-SA</a></tspan></text></g></g></svg>

<svg xmlns="http://www.w3.org/2000/svg" version="1.1" style="font-family: 'Helvetica Neue', Helvetica, Arial, sans-serif; font-size: 18px; background-color: white; text-rendering: optimizeLegibility; -webkit-font-smoothing: antialiased;" width="850" height="600"><g class="ChartTab"><g class="HeaderView"><g opacity="0.8" transform="translate(770, 15) scale(0.31)"><a xmlns:xlink="http://www.w3.org/1999/xlink" xlink:href="https://ourworldindata.org" target="_blank"><g><rect x="0" y="0" fill="#1B2543" width="211.2" height="130.1"/><rect x="0" y="112.2" fill="#E63912" width="211.2" height="17.9"/><g><rect x="1.2" y="12.3" fill="none" width="210.2" height="99.2"/><path fill="#FFFFFF" d="M37.8,32.2c0,12.7-7.7,19.4-17.1,19.4c-9.7,0-16.6-7.5-16.6-18.7c0-11.7,7.3-19.3,17.1-19.3 C31.3,13.7,37.8,21.3,37.8,32.2z M9.2,32.8c0,7.9,4.3,14.9,11.8,14.9c7.5,0,11.8-6.9,11.8-15.3c0-7.3-3.8-14.9-11.8-14.9 C13.1,17.5,9.2,24.8,9.2,32.8z"/><path fill="#FFFFFF" d="M62.7,43.8c0,2.7,0.1,5.1,0.2,7.2h-4.3l-0.3-4.3h-0.1c-1.3,2.1-4,4.9-8.8,4.9c-4.2,0-9.1-2.3-9.1-11.6 V24.6h4.8v14.6c0,5,1.5,8.4,5.9,8.4c3.2,0,5.5-2.2,6.3-4.4c0.3-0.7,0.4-1.6,0.4-2.5V24.6h4.8V43.8z"/><path fill="#FFFFFF" d="M67.3,32.8c0-3.1-0.1-5.8-0.2-8.2h4.2l0.2,5.2h0.2c1.2-3.5,4.1-5.8,7.3-5.8c0.5,0,0.9,0.1,1.4,0.2v4.5 c-0.5-0.1-1-0.2-1.6-0.2c-3.4,0-5.8,2.6-6.5,6.2c-0.1,0.7-0.2,1.4-0.2,2.2V51h-4.8V32.8z"/><path fill="#FFFFFF" d="M95.4,51l-9.4-36.8h5l4.4,18.6c1.1,4.6,2.1,9.2,2.7,12.7h0.1c0.6-3.7,1.8-8,3-12.8l4.9-18.5h5l4.5,18.7 c1,4.4,2,8.7,2.6,12.6h0.1c0.8-4,1.8-8.1,3-12.7l4.9-18.5h4.9L120.6,51h-5L111,31.9c-1.1-4.7-1.9-8.3-2.4-12h-0.1 c-0.7,3.7-1.5,7.3-2.8,12L100.4,51H95.4z"/><path fill="#FFFFFF" d="M154.9,37.6c0,9.8-6.8,14-13.2,14c-7.2,0-12.7-5.2-12.7-13.6c0-8.8,5.8-14,13.1-14 C149.8,24,154.9,29.5,154.9,37.6z M133.9,37.9c0,5.8,3.3,10.1,8,10.1c4.6,0,8-4.3,8-10.3c0-4.5-2.2-10.1-7.9-10.1 C136.3,27.6,133.9,32.8,133.9,37.9z"/><path fill="#FFFFFF" d="M158.2,32.8c0-3.1-0.1-5.8-0.2-8.2h4.2l0.2,5.2h0.2c1.2-3.5,4.1-5.8,7.3-5.8c0.5,0,0.9,0.1,1.4,0.2v4.5 c-0.5-0.1-1-0.2-1.6-0.2c-3.4,0-5.8,2.6-6.5,6.2c-0.1,0.7-0.2,1.4-0.2,2.2V51h-4.8V32.8z"/><path fill="#FFFFFF" d="M173.5,12.3h4.8V51h-4.8V12.3z"/><path fill="#FFFFFF" d="M206.5,12.3v31.9c0,2.3,0.1,5,0.2,6.8h-4.3l-0.2-4.6H202c-1.5,2.9-4.7,5.2-9,5.2 c-6.4,0-11.3-5.4-11.3-13.4c-0.1-8.8,5.4-14.2,11.9-14.2c4,0,6.8,1.9,8,4h0.1V12.3H206.5z M201.7,35.4c0-0.6-0.1-1.4-0.2-2 c-0.7-3.1-3.3-5.6-6.9-5.6c-5,0-7.9,4.4-7.9,10.2c0,5.3,2.6,9.8,7.8,9.8c3.2,0,6.2-2.1,7.1-5.7c0.2-0.7,0.2-1.3,0.2-2.1V35.4z"/><path fill="#FFFFFF" d="M42.8,64c0.1,1.6-1.1,2.9-3.1,2.9c-1.7,0-2.9-1.3-2.9-2.9c0-1.7,1.3-3,3-3C41.7,61,42.8,62.3,42.8,64z M37.4,97.8V71.4h4.8v26.4H37.4z"/><path fill="#FFFFFF" d="M47.5,78.6c0-2.7-0.1-5-0.2-7.1h4.3l0.3,4.4h0.1c1.3-2.5,4.4-5,8.8-5c3.7,0,9.4,2.2,9.4,11.2v15.8h-4.8 V82.6c0-4.3-1.6-7.8-6.1-7.8c-3.2,0-5.6,2.2-6.5,4.9c-0.2,0.6-0.3,1.4-0.3,2.2v15.9h-4.8V78.6z"/><path fill="#FFFFFF" d="M84,61.6c2.9-0.4,6.3-0.8,10.1-0.8c6.8,0,11.7,1.6,14.9,4.6c3.3,3,5.2,7.3,5.2,13.2c0,6-1.9,10.9-5.3,14.3 c-3.4,3.4-9.1,5.3-16.3,5.3c-3.4,0-6.2-0.2-8.6-0.4V61.6z M88.8,94.1c1.2,0.2,3,0.3,4.8,0.3c10.2,0,15.7-5.7,15.7-15.6 c0.1-8.7-4.9-14.2-14.9-14.2c-2.5,0-4.3,0.2-5.6,0.5V94.1z"/><path fill="#FFFFFF" d="M132.1,97.8l-0.4-3.3h-0.2c-1.5,2.1-4.3,3.9-8.1,3.9c-5.4,0-8.1-3.8-8.1-7.6c0-6.4,5.7-9.9,15.9-9.8v-0.5 c0-2.2-0.6-6.1-6-6.1c-2.5,0-5,0.8-6.9,2l-1.1-3.2c2.2-1.4,5.4-2.3,8.7-2.3c8.1,0,10.1,5.5,10.1,10.8v9.9c0,2.3,0.1,4.5,0.4,6.3 H132.1z M131.4,84.4c-5.3-0.1-11.2,0.8-11.2,5.9c0,3.1,2.1,4.6,4.5,4.6c3.4,0,5.6-2.2,6.4-4.4c0.2-0.5,0.3-1,0.3-1.5V84.4z"/><path fill="#FFFFFF" d="M146.6,63.9v7.6h6.9v3.7h-6.9v14.2c0,3.3,0.9,5.1,3.6,5.1c1.3,0,2.2-0.2,2.8-0.3l0.2,3.6 c-0.9,0.4-2.4,0.7-4.3,0.7c-2.2,0-4-0.7-5.2-2c-1.4-1.4-1.9-3.8-1.9-6.9V75.1h-4.1v-3.7h4.1v-6.3L146.6,63.9z"/><path fill="#FFFFFF" d="M171.4,97.8l-0.4-3.3h-0.2c-1.5,2.1-4.3,3.9-8.1,3.9c-5.4,0-8.1-3.8-8.1-7.6c0-6.4,5.7-9.9,15.9-9.8v-0.5 c0-2.2-0.6-6.1-6-6.1c-2.5,0-5,0.8-6.9,2l-1.1-3.2c2.2-1.4,5.4-2.3,8.7-2.3c8.1,0,10.1,5.5,10.1,10.8v9.9c0,2.3,0.1,4.5,0.4,6.3 H171.4z M170.7,84.4c-5.3-0.1-11.2,0.8-11.2,5.9c0,3.1,2.1,4.6,4.5,4.6c3.4,0,5.6-2.2,6.4-4.4c0.2-0.5,0.3-1,0.3-1.5V84.4z"/></g></g></a></g><a href="https://ourworldindata.org/grapher/daily-per-capita-supply-of-calories" target="_blank"><text font-size="27.00" x="15.0" y="36.6" fill="#555"><tspan x="15" y="36.6">Daily per capita supply of calories</tspan></text></a><text font-size="14.40" x="15.0" y="55.5" fill="#666"><tspan x="15" y="55.519999999999996">Average daily per capita supply of calories over the long-run, measured in kilocalories per person per day.</tspan></text></g><g class="LineChart"><defs><clipPath id="boundsClip-5"><rect x="84.196" y="0" width="830" height="956.2"></rect></clipPath></defs><g class="AxisBoxView"><g class="HorizontalAxis"><text x="94.2" y="556.5" fill="#666" text-anchor="middle" font-size="16.2">1934</text><text x="145.7" y="556.5" fill="#666" text-anchor="middle" font-size="16.2">1940</text><text x="231.5" y="556.5" fill="#666" text-anchor="middle" font-size="16.2">1950</text><text x="317.4" y="556.5" fill="#666" text-anchor="middle" font-size="16.2">1960</text><text x="403.2" y="556.5" fill="#666" text-anchor="middle" font-size="16.2">1970</text><text x="489" y="556.5" fill="#666" text-anchor="middle" font-size="16.2">1980</text><text x="574.9" y="556.5" fill="#666" text-anchor="middle" font-size="16.2">1990</text><text x="660.7" y="556.5" fill="#666" text-anchor="middle" font-size="16.2">2000</text><text x="772.3" y="556.5" fill="#666" text-anchor="middle" font-size="16.2">2013</text></g><g class="VerticalAxis"><text x="89.20" y="535.3" fill="#666" dominant-baseline="middle" text-anchor="end" font-size="16.2">0 kcal</text><text x="89.20" y="461.8" fill="#666" dominant-baseline="middle" text-anchor="end" font-size="16.2">500 kcal</text><text x="89.20" y="388.3" fill="#666" dominant-baseline="middle" text-anchor="end" font-size="16.2">1,000 kcal</text><text x="89.20" y="314.8" fill="#666" dominant-baseline="middle" text-anchor="end" font-size="16.2">1,500 kcal</text><text x="89.20" y="241.3" fill="#666" dominant-baseline="middle" text-anchor="end" font-size="16.2">2,000 kcal</text><text x="89.20" y="167.8" fill="#666" dominant-baseline="middle" text-anchor="end" font-size="16.2">2,500 kcal</text><text x="89.20" y="94.3" fill="#666" dominant-baseline="middle" text-anchor="end" font-size="16.2">3,000 kcal</text></g><g class="AxisGridLines"><line x1="94.20" y1="535.3" x2="772.27" y2="535.3" stroke="#ccc"></line><line x1="94.20" y1="461.8" x2="772.27" y2="461.8" stroke="#ddd" stroke-dasharray="3,2"></line><line x1="94.20" y1="388.3" x2="772.27" y2="388.3" stroke="#ddd" stroke-dasharray="3,2"></line><line x1="94.20" y1="314.8" x2="772.27" y2="314.8" stroke="#ddd" stroke-dasharray="3,2"></line><line x1="94.20" y1="241.3" x2="772.27" y2="241.3" stroke="#ddd" stroke-dasharray="3,2"></line><line x1="94.20" y1="167.8" x2="772.27" y2="167.8" stroke="#ddd" stroke-dasharray="3,2"></line><line x1="94.20" y1="94.3" x2="772.27" y2="94.3" stroke="#ddd" stroke-dasharray="3,2"></line></g><g class="AxisGridLines"><line x1="145.7" y1="535.30" x2="145.7" y2="78.40" stroke="#ddd" stroke-dasharray="3,2"></line><line x1="231.5" y1="535.30" x2="231.5" y2="78.40" stroke="#ddd" stroke-dasharray="3,2"></line><line x1="317.4" y1="535.30" x2="317.4" y2="78.40" stroke="#ddd" stroke-dasharray="3,2"></line><line x1="403.2" y1="535.30" x2="403.2" y2="78.40" stroke="#ddd" stroke-dasharray="3,2"></line><line x1="489" y1="535.30" x2="489" y2="78.40" stroke="#ddd" stroke-dasharray="3,2"></line><line x1="574.9" y1="535.30" x2="574.9" y2="78.40" stroke="#ddd" stroke-dasharray="3,2"></line><line x1="660.7" y1="535.30" x2="660.7" y2="78.40" stroke="#ddd" stroke-dasharray="3,2"></line><line x1="746.5" y1="535.30" x2="746.5" y2="78.40" stroke="#ddd" stroke-dasharray="3,2"></line></g></g><g clip-path="url(#boundsClip-5)"><g class="HeightedLegend clickable"><g class="legendMark"><rect x="782.272" y="71.2" width="52.728" height="14.4" fill="#fff" opacity="0"></rect><rect x="782.272" y="77.15" width="10" height="2.5" fill="#3360a9"></rect><text font-size="14.40" x="797.3" y="82.7" fill="#333"><tspan x="797.272" y="82.72000000000001">China</tspan></text></g></g><g class="Lines"><rect x="94" y="78" width="678" height="457" fill="rgba(255,255,255,0)" opacity="0"></rect><g class="key-China_0"><path stroke="#3360a9" stroke-linecap="round" d="M94 208L197 237L206 224L249 262L257 259L266 257L274 241L283 234L292 235L300 234L309 282L317 322L326 324L335 308L343 298L352 288L360 269L369 259L377 266L386 274L395 278L403 262L412 261L420 264L429 254L438 254L446 252L455 257L463 251L472 230L480 227L489 218L498 215L506 191L515 182L523 177L532 177L541 178L549 175L558 179L566 180L575 166L583 176L592 173L601 160L609 151L618 138L626 138L635 133L644 127L652 128L661 122L669 121L678 118L686 118L695 115L704 112L712 111L721 106L729 98L738 95L747 88L755 83L764 80L772 78" fill="none" stroke-width="1.5"></path><g fill="#3360a9"><circle cx="94" cy="208" r="2"></circle><circle cx="197" cy="237" r="2"></circle><circle cx="206" cy="224" r="2"></circle><circle cx="249" cy="262" r="2"></circle><circle cx="257" cy="259" r="2"></circle><circle cx="266" cy="257" r="2"></circle><circle cx="274" cy="241" r="2"></circle><circle cx="283" cy="234" r="2"></circle><circle cx="292" cy="235" r="2"></circle><circle cx="300" cy="234" r="2"></circle><circle cx="309" cy="282" r="2"></circle><circle cx="317" cy="322" r="2"></circle><circle cx="326" cy="324" r="2"></circle><circle cx="335" cy="308" r="2"></circle><circle cx="343" cy="298" r="2"></circle><circle cx="352" cy="288" r="2"></circle><circle cx="360" cy="269" r="2"></circle><circle cx="369" cy="259" r="2"></circle><circle cx="377" cy="266" r="2"></circle><circle cx="386" cy="274" r="2"></circle><circle cx="395" cy="278" r="2"></circle><circle cx="403" cy="262" r="2"></circle><circle cx="412" cy="261" r="2"></circle><circle cx="420" cy="264" r="2"></circle><circle cx="429" cy="254" r="2"></circle><circle cx="438" cy="254" r="2"></circle><circle cx="446" cy="252" r="2"></circle><circle cx="455" cy="257" r="2"></circle><circle cx="463" cy="251" r="2"></circle><circle cx="472" cy="230" r="2"></circle><circle cx="480" cy="227" r="2"></circle><circle cx="489" cy="218" r="2"></circle><circle cx="498" cy="215" r="2"></circle><circle cx="506" cy="191" r="2"></circle><circle cx="515" cy="182" r="2"></circle><circle cx="523" cy="177" r="2"></circle><circle cx="532" cy="177" r="2"></circle><circle cx="541" cy="178" r="2"></circle><circle cx="549" cy="175" r="2"></circle><circle cx="558" cy="179" r="2"></circle><circle cx="566" cy="180" r="2"></circle><circle cx="575" cy="166" r="2"></circle><circle cx="583" cy="176" r="2"></circle><circle cx="592" cy="173" r="2"></circle><circle cx="601" cy="160" r="2"></circle><circle cx="609" cy="151" r="2"></circle><circle cx="618" cy="138" r="2"></circle><circle cx="626" cy="138" r="2"></circle><circle cx="635" cy="133" r="2"></circle><circle cx="644" cy="127" r="2"></circle><circle cx="652" cy="128" r="2"></circle><circle cx="661" cy="122" r="2"></circle><circle cx="669" cy="121" r="2"></circle><circle cx="678" cy="118" r="2"></circle><circle cx="686" cy="118" r="2"></circle><circle cx="695" cy="115" r="2"></circle><circle cx="704" cy="112" r="2"></circle><circle cx="712" cy="111" r="2"></circle><circle cx="721" cy="106" r="2"></circle><circle cx="729" cy="98" r="2"></circle><circle cx="738" cy="95" r="2"></circle><circle cx="747" cy="88" r="2"></circle><circle cx="755" cy="83" r="2"></circle><circle cx="764" cy="80" r="2"></circle><circle cx="772" cy="78" r="2"></circle></g></g></g></g></g><g style="fill: #777;" class="SourcesFooter"><g style="fill: #777;" class="clickable"><text font-size="12.60" x="15.0" y="581.6"><tspan x="15" y="581.58">Source: Daily caloric supply per capita long-term - FAO (2017)</tspan></text></g><text font-size="12.60" x="552.0" y="581.6"><tspan x="552.004" y="581.58"><a target='_blank' style='fill: #777;' href='https://ourworldindata.org/food-per-person/'>OurWorldInData.org/food-per-person/</a> • <a style="fill: #777;" href="http://creativecommons.org/licenses/by-sa/4.0/deed.en_US" target="_blank">CC BY-SA</a></tspan></text></g></g></svg>
